X: 875
T: Missa O sacrum convivium Pleni Sanctus
C: Giovanni Perluigi da Palestrina
L: 1/4
M: 4/2
N: Derived from Sanctus_92_b.krn
Q: "Sanctus"
%%staves [1 2 3 4]
V: 1 clef=treble
V: 2 clef=treble-8
V: 3 clef=treble-8
V: 4 clef=bass
K: F
[V:1] z8 | 
[V:2] z8 | 
[V:3] c4B2c2 | 
[V:4] z8 | 
[V:1] z8 | 
[V:2] z8 | 
[V:3] A4G2A2 | 
[V:4] F,4E,2F,2 | 
[V:1] F4E2F2 | 
[V:2] z8 | 
[V:3] FGABc2d2- | 
[V:4] D,4C,2B,,2- | 
[V:1] D2E2F4 | 
[V:2] z4z2f2 | 
[V:3] d2c4B2 | 
[V:4] B,,2C,2D,4 | 
[V:1] z8 | 
[V:2] e2f2d4 | 
[V:3] c2F2G4 | 
[V:4] C,2C4B,2 | 
[V:1] c4B2c2 | 
[V:2] cdefg2e2 | 
[V:3] z8 | 
[V:4] C2A,2G,2A,2 | 
[V:1] A4G2F2 | 
[V:2] f4e2f2- | 
[V:3] z8 | 
[V:4] F,4C,2D,2 | 
[V:1] G4A4 | 
[V:2] f2e2f3e | 
[V:3] z4z2c2 | 
[V:4] C,4F,4 | 
[V:1] G2G4F2 | 
[V:2] d2e2c4 | 
[V:3] B2c2A4 | 
[V:4] z8 | 
[V:1] G2A4G2- | 
[V:2] z2c4B2 | 
[V:3] G2F2G4 | 
[V:4] z8 | 
[V:1] G2F2G4 | 
[V:2] c4d2e2 | 
[V:3] A4G2g2- | 
[V:4] z2C2=B,2C2 | 
[V:1] c4B2c2 | 
[V:2] c4d2f2- | 
[V:3] g2^f2g2c2- | 
[V:4] A,4G,2F,2- | 
[V:1] A2G4F2 | 
[V:2] fe2<d2cc2- | 
[V:3] c2=B2c4 | 
[V:4] F,2G,2A,4 | 
[V:1] G4G2G2- | 
[V:2] c2=B2c4- | 
[V:3] d4e4 | 
[V:4] G,4C,3D, | 
[V:1] G2A2G2EF | 
[V:2] c8 | 
[V:3] z4z2c2- | 
[V:4] E,2F,2C,4 | 
[V:1] GEF2E2A2- | 
[V:2] z8 | 
[V:3] c2d2c2AB | 
[V:4] z4z2F,2- | 
[V:1] A2G2A4 | 
[V:2] z4z2f2- | 
[V:3] cAB2A2d2- | 
[V:4] F,2G,2F,2D,E, | 
[V:1] z4A4- | 
[V:2] f2g2f2de | 
[V:3] d2^c2d4 | 
[V:4] F,D,E,2D,2D2- | 
[V:1] A2A2G4 | 
[V:2] fde2d2g2- | 
[V:3] z8 | 
[V:4] D2C2=B,2C2 | 
[V:1] c6B2 | 
[V:2] g2f2e2de | 
[V:3] z8 | 
[V:4] A,4G,4 | 
[V:1] AGFEF4 | 
[V:2] fg2<a2gf2 | 
[V:3] z2c4d2 | 
[V:4] F,8 | 
[V:1] G2A4G2 | 
[V:2] e2cdefd2- | 
[V:3] c2ABcAB2 | 
[V:4] z8 | 
[V:1] FEED/ C/D4 | 
[V:2] d2c4=B2 | 
[V:3] A4G2g2- | 
[V:4] z8 | 
[V:1] E6F2 | 
[V:2] c4z4 | 
[V:3] g2a2g2f2 | 
[V:4] z2C4D2 | 
[V:1] G2A4G2 | 
[V:2] z2c4d2 | 
[V:3] e4z4 | 
[V:4] C2A,B,CA,B,2 | 
[V:1] A4F4- | 
[V:2] c2ABcAd2 | 
[V:3] z2c4d2 | 
[V:4] A,2F,4B,,2 | 
[V:1] F4z2G2- | 
[V:2] A2f2e2d2 | 
[V:3] c2ABcAd2- | 
[V:4] F,2>G,2A,2B,2 | 
[V:1] G2A2G4 | 
[V:2] e2f2d4 | 
[V:3] dcc4=B2 | 
[V:4] C2F,2G,4 | 
[V:1] E2>F2GEF2 | 
[V:2] z2g4a2 | 
[V:3] c6F2 | 
[V:4] C,4z4 | 
[V:1] E2C4A,2 | 
[V:2] g2efgef2 | 
[V:3] c4z4 | 
[V:4] z2C,4D,2 | 
[V:1] C2>D2EFG2- | 
[V:2] e2>d2c2B2 | 
[V:3] z2c4d2 | 
[V:4] C,2A,,B,,C,A,,B,,2 | 
[V:1] G2F4E2 | 
[V:2] A2>F2G4 | 
[V:3] c2ABcdc2- | 
[V:4] C,2D,2C,4 | 
[V:1] F8- | 
[V:2] A2>B2c2d2 | 
[V:3] cBAGA2B2 | 
[V:4] F,6B,,2 | 
[V:1] F8
[V:2] c8
[V:3] A8
[V:4] F,8

